X: 23570
T: Lighthouse Keeper's
R: waltz
M: 3/4
K: Amajor
e2- ec e2|d2 c2 B2|A2- Ac e2|f2- fg a2|e2- ec A2|f2- fe d2|dc- c2 A2|
e2 ec e2|d2 c2 B2|A2 Ac e2|f2 fg a2|e2 ec A2|f2 fe d2|dc c2 A2|

